X:52
T:Sonata K.141 in D minor (Allegro)
C:Scarlatti, D.
M:6/8
L:1/8
Q:3/8=132
K:Dmin
|:d2d d2d|dcd BAG|A2A A2A|AGA FED|
EFG ABc|def gfe|dcd AGF|D3 z3:|

